!!! OTL: Berkowitz193
!!! Chapter: 1
!!! Section: II
!!! Page: 45
!!! Mode: 
!!! Encoder: DJB
**kern
*staff1
*I"Piano
=1-
*clefG2
*k[b-e-a-]
*E-:
*M6/4
4g/
4b-\
4g/
2.a-/
=2
4g/
4b-\
4g/
2.f/
=3
4e-/
4b-\
4e-/
4d/
4b-\
4d/
=4
4c/
4d/
4e-/
4f/
4g/
4a-/
=5
4b-\
4g/
4b-\
2.cc\
=6
4b-\
4e-/
4g/
4f/
4d/
4B-/
=7
4c/
4d/
4e-/
2B-/
4g/
=8
!!linebreak:original
4a-/
4f/
4b-\
2.e-/
==
*-
